svgs/sharp-solid/euro-sign.svg

<svg xmlns="http://www.w3.org/2000/svg" viewBox="0 0 320 512"><!--! Font Awesome Pro 6.6.0 by @fontawesome - https://fontawesome.com License - https://fontawesome.com/license (Commercial License) Copyright 2024 Fonticons, Inc. --><path d="M48.6 240c-.4 5.3-.6 10.6-.6 16s.2 10.7 .6 16L0 272l0 64 62.7 0C94.9 420.2 176.5 480 272 480l48 0 0-64-48 0c-59.2 0-110.9-32.2-138.6-80L288 336l0-64-175.2 0c-.5-5.3-.8-10.6-.8-16s.3-10.7 .8-16L288 240l0-64-154.6 0c27.7-47.8 79.4-80 138.6-80l48 0 0-64-48 0C176.5 32 94.9 91.8 62.7 176L0 176l0 64 48.6 0z"/></svg>

<svg xmlns="http://www.w3.org/2000/svg" viewBox="0 0 320 512"><!--! Font Awesome Pro 6.4.2 by @fontawesome - https://fontawesome.com License - https://fontawesome.com/license (Commercial License) Copyright 2023 Fonticons, Inc. --><path d="M48.6 240c-.4 5.3-.6 10.6-.6 16s.2 10.7 .6 16H0v64H62.7C94.9 420.2 176.5 480 272 480h48V416H272c-59.2 0-110.9-32.2-138.6-80H288V272H112.8c-.5-5.3-.8-10.6-.8-16s.3-10.7 .8-16H288V176H133.4c27.7-47.8 79.4-80 138.6-80h48V32H272C176.5 32 94.9 91.8 62.7 176H0v64H48.6z"/></svg>
